X: 253
T: James Boick, a Strathspey
C: by J Pringle
B: John Pringle "Collection of Reels Strathspeys & Jigs", 1801 p.25#3
Z: 2011 John Chambers <jc:trillian.mit.edu>
R: strathspey
M: C
L: 1/8
K: Em
V: 1
D |\
G>AB>G FDDF | ~G>(AB^d) eB-Be/f/ |\
g>edc (B/c/d/B/) G>A | B>GAF BEE :|
|: e/f/ |\
gb gf/e/ (^d/e/f/d/) Be/f/ | gba>g fdde/f/ |\
g>bB>G AB/G/ {g}HFG/A/ | B>GA>F BEE :|
V: 2 clef=bass middle=d
z | eEe^d =dfaz | gfe^d eBEz | cc'bf gd Gz | egbB eBE :|
|: z | e'be^a bfBz | zd'c'b aAdz | e2gB c^c Hdz | egbB eBE :|

%%sep 2 1 500

